X: 12317
T: Fairy, The
R: reel
M: 4/4
K: Gmajor
BcBA GBdB|cBAG FGAc|BG~G2 dcAg|fdaf ged^c|
dBBA GBdB|cBAG FGAc|BG~G2 cBAG|1 FGAF G3A:|2 FGAF G3B||
|:d2dg e2ed|^cA~A2 ded=c|BG~G2 dcAg|fdaf gfe^c|
dBdg e2ed|^cA~A2 d3=c|BGBd cBAG|1 FGAF G3B:|2 FGAF G2A2||

